-----BEGIN PGP SIGNATURE-----

iQIzBAABCgAdFiEEA1iZm75wT1iLkJSXnlUyRcsXBH0FAmoeBLsACgkQnlUyRcsX
BH0fPBAAt84mjwV3aLhChj22wjYu9/3AXj0iAyIdJLBGeFMV+NRuGPERx2YO24vC
TbJIEA8RJU1Fan0sN+oZlNjmyYymstLGA52VMAmQJ+JMTnuSyGD3qOWTzM39TwCP
YTA9F6UV9PWdgo9gW1YF52da7OCyUq5AkLv90Ky6yjCOSXz+klgYLnY/AC8/dgw1
7p2OOwniWgllHSuiBZtKkyfoRstKgFYdTbdlv5Em7j3dFmqJjfUoT4XMXWYQj9Ss
u6DpgEa25sjQksfoKlMXSTb5t19v8+qHbcKV2pD3GVr/3/2mFZRUpYHKX+wOSIFF
mt3qOxPKHFe86FNrWpOqe00AGjbYxpmXa3MxQ+PHjomrh2OOj8JcAEH5MLz2LWOA
2Go300OIHjeGI4gxbpem+HiTn9FgFqrlXLUjXtv54wsCdruV1vncELQs1wL2cBFK
YBIAf5QpLiihTyCIvSPU93EW3FPGxo1BcQutuhqEJaZ0TMhl0qyYG3dO/+MW2VA/
kYqxSIWMcFFYz6r8mHNeyf2RZgV35QK6zGrwkYNmU0NUL7qcQRmoxOVOnwAXrHon
56uSGr/gIh9f96WmvqxJYoCViRM1I3HyaMRe1UyQxEljqf+jQLaw2L+zcRHUjcCA
LWfQtIMHTDzFmuH8Tk48i0yyKXYTLubHGxCqpw+3jwSEO5DN4Fs=
=Ir3c
-----END PGP SIGNATURE-----
